X: 1
T: the Battle of Bemis Heights
P: piffero a0811
O: Roy Watrous
%R: jig, march
F: http://ancients.sudburymuster.org/mus/sng/pdf/battleobemishtsC0.pdf
Z: 2020 John Chambers <jc:trillian.mit.edu>
M: 6/8
L: 1/8
K: G
(3D/E/F/ |\
GDG BGB | dge d2B | def gdB | ABG E2D ||\
GDG BGB | dge d2B | def gdB | ABA G2 :|
|: B |\
e2e efg | fed B2B | efg fed | BAG E2D ||\
GDG BGB | dge d2B | def gdB | ABA G2 :|
|: g |\
Tf3-fed | gbg d2d | Bdg Bdg | BAG E2D ||\
GDG BGB | dge d2B | def gdB | ABA G2 :|
